X: 3
T: Lanigan's Ball
R: jig
M: 6/8
L: 1/8
K: Emin
BAB GAB|dBG AGA|BAB GAB|AFD AFD|BAB GAB|dBG ~A3|Bdd cAA|BGE E3:|e2f gfe|f/g/a g fed|e2f gfe|fdB B^cd| e2f gfe|a2g fed|edB B2A|BGE E3:|


Tune 264	Setting 13005

